X:1
T:Paganini
Z:Giddily
M:4/4
L:1/8
Q:1/4=100
K:Bb

z8|z4 B/2c/2B/2A/2 B/2c/2d/2B/2|c/2B/2A/2G/2 F/2G/2A/2B/2 c/2d/2e/2d/2 f/2e/2d/2c/2|d/2e/2d/2c/2 B/2c/2d/2e/2 f/2e/2d/2c/2 =B/2d/2g/2f/2|
e/2d/2c/2_B/2 A/2c/2f/2e/2 d/2c/2B/2A/2 G/2c/2d/2c/2|B/2A/2G/2F/2 =E/2F/2G/2A/2 B/2c/2B/2A/2 B/2c/2d/2B/2|c/2B/2A/2G/2 F/2G/2A/2B/2 c/2d/2e/2d/2 f/2e/2d/2c/2|d/2e/2d/2c/2 B/2c/2d/2e/2 f/2e/2d/2c/2 =B/2d/2g/2f/2|
e/2d/2c/2_B/2 A/2c/2f/2e/2 d/2c/2B/2A/2 G/2B/2e/2d/2|c/2B/2A/2G/2 _G/2A/2d/2c/2 B/2A/2=G/2F/2 =E/2G/2c/2B/2|A/2G/2F/2G/2 A/2B/2c/2B/2 A/2B/2c/2d/2 e/2f/2g/2f/2|g/2f/2=e/2f/2 g/2f/2_e/2d/2 f/2e/2d/2e/2 f/2e/2d/2c/2|
e/2d/2_d/2=d/2 e/2d/2c/2B/2 d/2c/2=B/2c/2 d/2c/2_B/2A/2|B/2F/2G/2A/2 B/2c/2d/2e/2 f/2e/2d/2e/2 f/2g/2a/2b/2|g/2a/2b/2a/2 c/2b/2a/2g/2 g/2f/2=e/2f/2 a/2g/2f/2_e/2|d/2F/2G/2A/2 B/2c/2d/2e/2 f/2e/2d/2e/2 f/2g/2a/2b/2|
g/2a/2b/2a/2 c/2b/2a/2g/2 g/2f/2=e/2f/2 a/2g/2f/2_e/2|d/2f/2e/2d/2 e/2f/2g/2a/2 b/2a/2b/2a/2 c/2b/2a/2g/2|_g/2=g/2a/2g/2 _g/2d/2=e/2_g/2 =g/2a/2b/2a/2 b/2a/2g/2f/2|=e/2f/2g/2f/2 =e/2c/2d/2=e/2 f/2=e/2f/2g/2 a/2g/2f/2=e/2|
f/2=e/2d/2_d/2 =d/2=e/2f/2=e/2 g/2f/2=e/2d/2 c/2=B/2A/2=B/2|c/2C/2D/2=E/2 F/2G/2A/2=B/2 c/2d/2=e/2f/2 g/2a/2b/2c/2|b/2a/2c/2a/2 g/2f/2a/2f/2 =e/2d/2f/2d/2 c/2=B/2d/2=B/2|c/2C/2D/2=E/2 F/2G/2A/2=B/2 c/2d/2=e/2f/2 g/2=e/2c/2_B/2|
B/2A/2c/2A/2 G/2F/2A/2F/2 =E/2D/2F/2D/2 C/2=B,/2D/2=B,/2|C/2=E/2G/2c/2 =B/2d/2g/2f/2 =e/2g/2=e/2c/2 =B/2G/2F/2D/2|C/2=E/2G/2c/2 =B/2d/2g/2f/2 =e/2g/2=e/2c/2 =B/2G/2F/2D/2|C/2=E/2G/2c/2 =e/2g/2=b/2c/2 _b/2a/2g/2f/2 =e/2d/2c/2_B/2|
A/2B/2c/2d/2 =e/2f/2g/2a/2 g/2f/2=e/2d/2 _d/2B/2A/2G/2|F/2G/2A/2=B/2 _d/2=d/2=e/2f/2 _e/2d/2c/2_B/2 A/2G/2F/2_E/2|D/2=E/2F/2G/2 A/2B/2c/2d/2 d/2c/2A/2c/2 c/2B/2A/2G/2|F/2c/2a/2g/2 _g/2a/2d/2_g/2 =g/2b/2g/2f/2 =e/2g/2c/2=e/2|
f/2a/2f/2=e/2 d/2f/2B/2d/2 =e/2g/2=e/2d/2 _d/2=e/2A/2_d/2|=d/2f/2d/2c/2 =B/2d/2G/2=B/2 c/2d/2=e/2f/2 g/2a/2b/2c/2|b/2a/2c/2a/2 a/2g/2b/2g/2 g/2f/2a/2f/2 f/2=e/2g/2=e/2|f/2c/2A/2G/2 _G/2_e/2d/2c/2 _B/2A/2=G/2F/2 =E/2d/2c/2B/2|
A/2G/2F/2=E/2 D/2c/2B/2A/2 G/2F/2=E/2D/2 _D/2B/2A/2G/2|F/2=E/2=D/2C/2 =B,/2A/2G/2F/2 =E/2C/2D/2=E/2 F/2G/2A/2B/2|c/2d/2c/2A/2 B/2c/2B/2G/2 A/2B/2A/2F/2 G/2A/2G/2=E/2|F/2A/2c/2f/2 =e/2g/2f/2d/2 c/2=e/2g/2c/2 =b/2c/2_b/2g/2|
f/2a/2g/2f/2 =e/2g/2f/2d/2 c/2=B/2d/2c/2 _B/2A/2B/2G/2|F/2A/2G/2F/2 =E/2G/2F/2D/2 C/2=B,/2D/2C/2 _B,/2A,/2B,/2G,/2|F,/2A,/2C/2F/2 =E/2C/2B,/2G,/2 F,/2A,/2C/2F/2 =E/2C/2B,/2G,/2|F,/2A,/2C/2F/2 A/2c/2=e/2f/2 =e/2f/2=e/2f/2 =e/2f/2=e/2f/2|
_g/2=g/2_g/2=g/2 _g/2=g/2_g/2=g/2 f/2_e/2d/2e/2 f/2e/2d/2c/2|B/2A/2c/2B/2 A/2B/2G/2A/2 F/2G/2F/2=E/2 F/2A/2G/2B/2|A/2c/2B/2d/2 c/2e/2d/2f/2 e/2c/2A/2F/2 _G/2F/2=E/2F/2|=G/2F/2=E/2F/2 _G/2=G/2_A/2=A/2 B/2c/2B/2A/2 B/2c/2d/2B/2|
c/2B/2A/2G/2 F/2G/2A/2B/2 c/2d/2e/2d/2 f/2e/2d/2c/2|d/2e/2d/2c/2 B/2c/2d/2e/2 f/2e/2d/2c/2 =B/2d/2g/2f/2|e/2d/2c/2_B/2 A/2c/2f/2e/2 d/2c/2B/2A/2 G/2c/2d/2c/2|B/2A/2G/2F/2 =E/2F/2G/2A/2 B/2c/2B/2A/2 B/2c/2d/2B/2|
c/2B/2A/2G/2 F/2G/2A/2B/2 c/2d/2e/2d/2 f/2e/2d/2c/2|d/2e/2d/2c/2 B/2c/2d/2e/2 f/2e/2d/2c/2 =B/2d/2g/2f/2|e/2d/2c/2_B/2 A/2c/2f/2e/2 d/2c/2B/2A/2 G/2B/2e/2d/2|c/2B/2A/2G/2 _G/2A/2d/2c/2 B/2A/2=G/2F/2 =E/2G/2c/2B/2|
A/2G/2F/2G/2 A/2B/2c/2B/2 A/2B/2c/2d/2 e/2f/2g/2f/2|g/2f/2=e/2f/2 g/2f/2_e/2d/2 f/2e/2d/2e/2 f/2e/2d/2c/2|e/2d/2_d/2=d/2 e/2d/2c/2B/2 d/2c/2=B/2c/2 d/2c/2_B/2A/2|B/2F/2G/2A/2 B/2c/2d/2e/2 f/2e/2d/2e/2 f/2g/2a/2b/2|
g/2a/2b/2a/2 c/2b/2a/2g/2 g/2f/2=e/2f/2 a/2g/2f/2_e/2|d/2F/2G/2A/2 B/2c/2d/2e/2 f/2e/2d/2e/2 f/2g/2a/2b/2|g/2a/2b/2a/2 c/2b/2a/2g/2 g/2f/2=e/2f/2 a/2g/2f/2_e/2|d/2f/2e/2d/2 e/2f/2g/2a/2 b/2a/2b/2a/2 c/2b/2a/2g/2|
_g/2=g/2a/2g/2 _g/2d/2=e/2_g/2 =g/2a/2b/2a/2 b/2a/2g/2f/2|=e/2f/2g/2f/2 =e/2c/2d/2=e/2 f/2=e/2f/2g/2 a/2g/2f/2=e/2|f/2=e/2d/2_d/2 =d/2=e/2f/2=e/2 g/2f/2=e/2d/2 c/2=B/2A/2=B/2|c/2C/2D/2=E/2 F/2G/2A/2=B/2 c/2d/2=e/2f/2 g/2a/2b/2c/2|
b/2a/2c/2a/2 g/2f/2a/2f/2 =e/2d/2f/2d/2 c/2=B/2d/2=B/2|c/2C/2D/2=E/2 F/2G/2A/2=B/2 c/2d/2=e/2f/2 g/2=e/2c/2_B/2|B/2A/2c/2A/2 G/2F/2A/2F/2 =E/2D/2F/2D/2 C/2=B,/2D/2=B,/2|C/2=E/2G/2c/2 =B/2d/2g/2f/2 =e/2g/2=e/2c/2 =B/2G/2F/2D/2|
C/2=E/2G/2c/2 =B/2d/2g/2f/2 =e/2g/2=e/2c/2 =B/2G/2F/2D/2|C/2=E/2G/2c/2 =e/2g/2=b/2c/2 _b/2a/2g/2f/2 =e/2d/2c/2_B/2|A/2B/2c/2d/2 =e/2f/2g/2a/2 g/2f/2=e/2d/2 _d/2B/2A/2G/2|F/2G/2A/2=B/2 _d/2=d/2=e/2f/2 _e/2d/2c/2_B/2 A/2G/2F/2_E/2|
D/2=E/2F/2G/2 A/2B/2c/2d/2 d/2c/2A/2c/2 c/2B/2A/2G/2|F/2c/2a/2g/2 _g/2a/2d/2_g/2 =g/2b/2g/2f/2 =e/2g/2c/2=e/2|f/2a/2f/2=e/2 d/2f/2B/2d/2 =e/2g/2=e/2d/2 _d/2=e/2A/2_d/2|=d/2f/2d/2c/2 =B/2d/2G/2=B/2 c/2d/2=e/2f/2 g/2a/2b/2c/2|
b/2a/2c/2a/2 a/2g/2b/2g/2 g/2f/2a/2f/2 f/2=e/2g/2=e/2|f/2c/2A/2G/2 _G/2_e/2d/2c/2 _B/2A/2=G/2F/2 =E/2d/2c/2B/2|A/2G/2F/2=E/2 D/2c/2B/2A/2 G/2F/2=E/2D/2 _D/2B/2A/2G/2|F/2=E/2=D/2C/2 =B,/2A/2G/2F/2 =E/2C/2D/2=E/2 F/2G/2A/2B/2|
c/2d/2c/2A/2 B/2c/2B/2G/2 A/2B/2A/2F/2 G/2A/2G/2=E/2|F/2A/2c/2f/2 =e/2g/2f/2d/2 c/2=e/2g/2c/2 =b/2c/2_b/2g/2|f/2a/2g/2f/2 =e/2g/2f/2d/2 c/2=B/2d/2c/2 _B/2A/2B/2G/2|F/2A/2G/2F/2 =E/2G/2F/2D/2 C/2=B,/2D/2C/2 _B,/2A,/2B,/2G,/2|
F,/2A,/2C/2F/2 =E/2C/2B,/2G,/2 F,/2A,/2C/2F/2 =E/2C/2B,/2G,/2|F,/2A,/2C/2F/2 A/2c/2=e/2f/2 =e/2f/2=e/2f/2 =e/2f/2=e/2f/2|_g/2=g/2_g/2=g/2 _g/2=g/2_g/2=g/2 f/2_e/2d/2e/2 f/2e/2d/2c/2|B/2A/2c/2B/2 A/2B/2c/2d/2 e/2d/2c/2B/2 A/2c/2A/2G/2|
_G/2=G/2A/2G/2 _G/2A/2_G/2_E/2 D/2E/2_D/2E/2 =D/2E/2_D/2E/2|=D/2E/2_D/2=D/2 E/2=E/2F/2_G/2 =G/2A/2G/2_G/2 =G/2A/2B/2G/2|A/2G/2_G/2_E/2 D/2=E/2_G/2=G/2 A/2B/2c/2B/2 d/2c/2B/2A/2|B/2c/2B/2A/2 G/2_G/2=G/2A/2 B/2c/2B/2A/2 B/2c/2d/2B/2|
c/2B/2A/2G/2 F/2G/2A/2B/2 c/2d/2e/2d/2 f/2e/2d/2c/2|d/2e/2d/2c/2 B/2A/2B/2c/2 d/2=e/2d/2_d/2 =d/2=e/2f/2d/2|=e/2d/2_d/2B/2 A/2=B/2_d/2=d/2 =e/2f/2g/2f/2 a/2g/2f/2=e/2|f/2a/2_a/2=a/2 b/2a/2g/2f/2 =e/2g/2_g/2=g/2 a/2g/2f/2=e/2|
d/2f/2=e/2f/2 g/2f/2=e/2d/2 _d/2=d/2=e/2f/2 g/2=e/2d/2_d/2|=d/2_g/2a/2=g/2 _g/2_e/2d/2c/2 =B/2c/2d/2e/2 f/2=g/2_a/2=B/2|_B/2=e/2g/2f/2 =e/2d/2c/2B/2 A/2B/2c/2d/2 _e/2f/2_g/2A/2|_A/2d/2f/2e/2 d/2c/2B/2_A/2 G/2_A/2B/2c/2 d/2e/2f/2e/2|
c/2d/2e/2f/2 =g/2_a/2b/2c/2 c/2b/2_a/2g/2 b/2_a/2g/2f/2|e/2B/2=A/2B/2 c/2B/2A/2B/2 e/2B/2A/2B/2 g/2B/2A/2B/2|_a/2b/2_a/2g/2 f/2g/2f/2e/2 d/2e/2f/2e/2 d/2c/2B/2_A/2|G/2B/2=A/2B/2 c/2B/2A/2B/2 e/2B/2A/2B/2 g/2B/2A/2B/2|
_a/2b/2_a/2g/2 f/2g/2f/2e/2 d/2e/2f/2e/2 d/2c/2B/2_A/2|G/2B/2c/2d/2 e/2d/2e/2f/2 g/2f/2e/2d/2 c/2e/2d/2c/2|=B/2c/2d/2=B/2 G/2=B/2c/2d/2 e/2d/2c/2=B/2 c/2_B/2=A/2G/2|_G/2=G/2A/2_G/2 D/2c/2B/2A/2 =G/2_G/2=G/2B/2 A/2_A/2=A/2c/2|
B/2A/2B/2d/2 =B/2g/2f/2d/2 c/2g/2=e/2d/2 _d/2b/2=a/2g/2|_g/2=d/2_d/2=d/2 _e/2d/2_d/2=d/2 _g/2d/2_d/2=d/2 a/2d/2_d/2=d/2|b/2c/2b/2a/2 =g/2a/2g/2_g/2 =g/2d/2e/2d/2 c/2_B/2A/2G/2|_G/2D/2_D/2=D/2 _E/2D/2_D/2=D/2 _G/2D/2_D/2=D/2 A/2D/2_D/2=D/2|
B/2c/2B/2A/2 =G/2A/2G/2_G/2 =G/2D/2E/2D/2 C/2B,/2A,/2G,/2|D/2D/2E/2D/2 _G/2D/2E/2D/2 =G/2D/2E/2D/2 A/2D/2E/2D/2|B/2G/2A/2G/2 =B/2G/2_A/2G/2 c/2G/2_A/2G/2 d/2G/2_A/2G/2|e/2d/2c/2=B/2 c/2=B/2c/2d/2 e/2d/2f/2e/2 d/2c/2_B/2_A/2|
G/2_G/2=G/2=A/2 B/2c/2d/2e/2 d/2_d/2=d/2e/2 d/2c/2B/2A/2|G/2g/2_a/2g/2 f/2e/2d/2f/2 e/2d/2c/2e/2 d/2c/2=B/2d/2|c/2d/2e/2f/2 e/2d/2c/2e/2 d/2c/2_B/2d/2 c/2B/2A/2c/2|B/2c/2d/2e/2 d/2c/2B/2d/2 c/2B/2A/2c/2 B/2A/2G/2B/2|
A/2_d/2=d/2e/2 d/2c/2B/2d/2 c/2B/2A/2c/2 B/2A/2G/2B/2|A/2D/2E/2D/2 _G/2D/2E/2D/2 =G/2D/2E/2D/2 A/2D/2E/2D/2|B/2G/2A/2G/2 =B/2G/2_A/2G/2 c/2G/2_A/2G/2 d/2G/2_A/2G/2|e/2d/2c/2=B/2 c/2=B/2c/2d/2 e/2d/2f/2e/2 d/2c/2_B/2_A/2|
G/2=A/2G/2_G/2 =G/2_G/2=G/2A/2 B/2G/2=E/2_D/2 B,/2G/2=E/2_D/2|=D/2G/2_G/2A/2 =G/2B/2A/2c/2 B/2d/2_d/2e/2 =d/2g/2_g/2=a/2|=g/2B/2A/2c/2 B/2d/2c/2e/2 d/2e/2_d/2e/2 =d/2e/2_d/2e/2|=d/2g/2f/2e/2 d/2c/2B/2A/2 G/2f/2e/2d/2 c/2B/2A/2G/2|
A/2c/2e/2d/2 c/2B/2A/2G/2 _G/2_E/2D/2C/2 B,/2A,/2G,/2_G,/2|=G,/2d/2_d/2=d/2 =e/2d/2_d/2=d/2 g/2d/2_d/2=d/2 =b/2d/2_d/2=d/2|c/2d/2c/2=b/2 a/2=b/2a/2g/2 _g/2=g/2a/2g/2 _g/2=e/2d/2c/2|=B/2d/2_d/2=d/2 =e/2d/2_d/2=d/2 =g/2d/2_d/2=d/2 _b/2d/2_d/2=d/2|
c/2d/2c/2b/2 a/2b/2a/2g/2 _g/2=g/2a/2g/2 _g/2_e/2d/2c/2|_B/2=g/2_g/2=g/2 a/2g/2_g/2=g/2 _a/2g/2f/2e/2 d/2B/2c/2d/2|e/2d/2e/2f/2 g/2d/2e/2g/2 f/2e/2d/2c/2 =B/2=G/2A/2=B/2|c/2=B/2c/2d/2 e/2=B/2c/2f/2 e/2d/2c/2_B/2 A/2F/2G/2A/2|
B/2A/2B/2d/2 c/2=B/2c/2e/2 d/2_d/2=d/2f/2 =e/2c/2_B/2G/2|F/2F/2=E/2F/2 G/2F/2=E/2F/2 A/2F/2=E/2F/2 c/2F/2=E/2F/2|_d/2_e/2_d/2c/2 B/2c/2B/2A/2 B/2F/2_G/2F/2 _E/2_D/2C/2B,/2|A,/2F/2=E/2F/2 _G/2F/2=E/2F/2 A/2F/2=E/2F/2 c/2F/2=E/2F/2|
_d/2e/2_d/2c/2 B/2c/2B/2A/2 B/2F/2_G/2F/2 _E/2_D/2C/2B,/2|F,/2A,/2C/2F/2 B/2F/2_D/2B,/2 F/2A/2c/2f/2 b/2f/2_d/2B/2|F/2A/2c/2f/2 B/2F/2_D/2B,/2 F/2A/2c/2f/2 B/2F/2_D/2B,/2|F,/2A,/2C/2F/2 A/2c/2=e/2f/2 =e/2f/2=e/2f/2 =e/2f/2=e/2f/2|
_g/2=g/2_g/2=g/2 _g/2=g/2=a/2g/2 f/2_e/2=d/2e/2 f/2e/2d/2c/2|B/2A/2c/2B/2 A/2B/2=G/2A/2 F/2G/2F/2=E/2 F/2A/2G/2B/2|A/2c/2B/2d/2 c/2e/2d/2f/2 e/2c/2A/2F/2 _G/2F/2=E/2F/2|=G/2F/2=E/2F/2 _G/2=G/2_A/2=A/2 B/2c/2B/2A/2 B/2c/2d/2B/2|
c/2B/2A/2G/2 F/2G/2A/2B/2 c/2d/2e/2d/2 f/2e/2d/2c/2|d/2e/2d/2c/2 B/2c/2d/2e/2 f/2e/2d/2c/2 =B/2d/2g/2f/2|e/2d/2c/2_B/2 A/2c/2f/2e/2 d/2c/2B/2A/2 G/2c/2d/2c/2|B/2A/2G/2F/2 =E/2F/2G/2A/2 B/2c/2B/2A/2 B/2c/2d/2B/2|
c/2B/2A/2G/2 F/2G/2A/2B/2 c/2d/2e/2d/2 f/2e/2d/2c/2|d/2e/2d/2c/2 B/2d/2f/2g/2 _a/2g/2f/2e/2 d/2c/2B/2_A/2|G/2B/2c/2d/2 e/2f/2g/2=a/2 b/2a/2g/2f/2 =e/2d/2c/2B/2|=A/2c/2F/2G/2 A/2B/2c/2d/2 _e/2f/2g/2b/2 a/2g/2f/2e/2|
d/2b/2f/2d/2 c/2a/2_g/2c/2 B/2=g/2d/2B/2 _A/2f/2d/2_A/2|G/2_E/2G/2B/2 e/2G/2B/2e/2 g/2b/2g/2b/2 _d/2b/2g/2=e/2|f/2b/2c/2b/2 a/2c/2b/2g/2 f/2=e/2g/2f/2 _e/2d/2e/2c/2|B/2_d/2c/2_d/2 e/2_d/2c/2_d/2 _g/2_d/2c/2_d/2 b/2_d/2c/2_d/2|
=b/2_a/2_b/2=b/2 _a/2_b/2_g/2_a/2 f/2_g/2_a/2_g/2 f/2e/2_d/2=B/2|_B/2_G/2_A/2B/2 =B/2_d/2e/2f/2 _g/2_a/2b/2c/2 _a/2b/2_g/2=e/2|f/2=e/2=g/2f/2 _e/2=d/2c/2_B/2 =A/2=G/2F/2E/2 =D/2C/2B,/2A,/2|B,/2_D/2C/2_D/2 E/2_D/2C/2_D/2 _G/2_D/2C/2_D/2 B/2_D/2C/2_D/2|
=B/2_d/2_B/2=B/2 _A/2_B/2_G/2_A/2 F/2_G/2_A/2_G/2 F/2E/2_D/2=B,/2|_B,/2_G,/2_A,/2B,/2 =B,/2_D/2E/2F/2 _G/2_A/2B/2c/2 _d/2B/2_G/2=E/2|F/2B/2=d/2f/2 =e/2f/2_e/2d/2 c/2B/2=A/2=G/2 F/2_E/2=D/2C/2|_B,/2D/2d/2c/2 =B/2G/2A/2=B/2 c/2e/2c/2_B/2 A/2F/2G/2A/2|
B/2d/2B/2A/2 G/2E/2F/2G/2 A/2c/2A/2G/2 _G/2D/2=E/2_G/2|=G/2B/2G/2F/2 =E/2C/2D/2=E/2 F/2G/2A/2B/2 c/2d/2e/2c/2|e/2d/2c/2B/2 _G/2=G/2_E/2C/2 G/2F/2D/2B,/2 F/2E/2C/2=A,/2|B,/2F/2D/2C/2 =B,/2_A/2G/2F/2 E/2D/2C/2_B,/2 A,/2G/2F/2E/2|
D/2c/2B/2=A/2 G/2f/2e/2d/2 c/2B/2A/2G/2 _G/2e/2d/2c/2|B/2A/2=G/2F/2 =E/2d/2c/2B/2 A/2F/2G/2A/2 B/2c/2d/2f/2|e/2d/2c/2B/2 _G/2=G/2_E/2C/2 G/2F/2D/2B,/2 F/2E/2C/2A,/2|B,/2D/2F/2B/2 d/2B/2A/2G/2 F/2A/2c/2=e/2 f/2_e/2c/2A/2|
B/2d/2f/2b/2 c/2b/2=a/2g/2 f/2g/2a/2b/2 c/2a/2c/2a/2|b/2a/2b/2g/2 c/2b/2a/2g/2 f/2=e/2g/2f/2 _e/2d/2e/2c/2|B/2A/2B/2d/2 c/2B/2A/2G/2 F/2=E/2G/2F/2 _E/2D/2E/2C/2|B,/2D/2F/2B/2 A/2F/2E/2C/2 B,/2D/2F/2B/2 F/2A/2c/2F/2|
B,/2D/2F/2B/2 A/2F/2E/2C/2 B,/2D/2F/2B/2 F/2A/2c/2F/2|B,/2B,/2C/2D/2 E/2F/2G/2A/2 B/2B/2c/2d/2 e/2f/2g/2a/2|b/2B/2c/2d/2 e/2f/2g/2a/2 b/2b/2a/2g/2 f/2e/2d/2c/2|B/2b/2a/2g/2 f/2e/2d/2c/2 B/2B/2A/2G/2 F/2E/2D/2C/2|
